X:1
T:A Good Minuet
C:from Edward Winder's ms2
M:6/8
L:1/8
K:G
G/2A/2|BAG def|g3g2d|e/2d/2cB e/2d/2cB|A3A2G/2A/2|
BAG def|g3g2b/2a/2|gGA B/2c/2 A2|G3-G2:|
|:g|fed ga/2g/2a/2b/2|e3fe/2f/2g/2a/2|dcB e/2d/2cB|
A3A2G/2A/2|BAG def|g3g2b/2a/2|gGA B/2c/2 A2|G3G2:|
%%vskip 1cm
